dist/img/svg/face-icon.svg

<svg width="130" height="130" viewBox="0 0 130 130" fill="none" xmlns="http://www.w3.org/2000/svg">
<path d="M32.0343 114V110.136H36.5563V108.386H32.0343V106.412H36.6543V104.662H30.0463V114H32.0343ZM45.8507 114L42.2527 104.662H39.7607L36.1487 114H38.4167L39.0047 112.418H43.0087L43.5827 114H45.8507ZM42.4627 110.668H39.5507L41.0067 106.65L42.4627 110.668ZM50.4565 114.168C52.5145 114.168 53.6905 113.034 54.3625 111.872L52.6545 111.046C52.2625 111.816 51.4225 112.404 50.4565 112.404C48.7625 112.404 47.5305 111.102 47.5305 109.338C47.5305 107.574 48.7625 106.272 50.4565 106.272C51.4225 106.272 52.2625 106.874 52.6545 107.63L54.3625 106.79C53.7045 105.628 52.5145 104.508 50.4565 104.508C47.6565 104.508 45.4865 106.468 45.4865 109.338C45.4865 112.208 47.6565 114.168 50.4565 114.168ZM61.8539 114V112.25H57.2339V110.136H61.7559V108.386H57.2339V106.412H61.8539V104.662H55.2459V114H61.8539ZM68.176 114C69.954 114 70.892 112.88 70.892 111.48C70.892 110.304 70.094 109.338 69.1 109.184C69.982 109.002 70.71 108.218 70.71 107.042C70.71 105.796 69.8 104.662 68.022 104.662H63.108V114H68.176ZM67.588 108.4H65.096V106.37H67.588C68.26 106.37 68.68 106.804 68.68 107.392C68.68 107.98 68.26 108.4 67.588 108.4ZM67.658 112.278H65.096V110.108H67.658C68.442 110.108 68.862 110.612 68.862 111.2C68.862 111.872 68.414 112.278 67.658 112.278ZM76.5152 114.168C79.3432 114.168 81.4012 112.152 81.4012 109.338C81.4012 106.524 79.3432 104.508 76.5152 104.508C73.7012 104.508 71.6432 106.524 71.6432 109.338C71.6432 112.152 73.7012 114.168 76.5152 114.168ZM76.5152 112.404C74.7932 112.404 73.6872 111.074 73.6872 109.338C73.6872 107.588 74.7932 106.272 76.5152 106.272C78.2372 106.272 79.3572 107.588 79.3572 109.338C79.3572 111.074 78.2372 112.404 76.5152 112.404ZM86.9203 114.168C89.7483 114.168 91.8063 112.152 91.8063 109.338C91.8063 106.524 89.7483 104.508 86.9203 104.508C84.1063 104.508 82.0483 106.524 82.0483 109.338C82.0483 112.152 84.1063 114.168 86.9203 114.168ZM86.9203 112.404C85.1983 112.404 84.0923 111.074 84.0923 109.338C84.0923 107.588 85.1983 106.272 86.9203 106.272C88.6423 106.272 89.7623 107.588 89.7623 109.338C89.7623 111.074 88.6423 112.404 86.9203 112.404ZM100.895 114L96.9333 109.044L100.643 104.662H98.1933L94.8893 108.834V104.662H92.9013V114H94.8893V111.13L95.6173 110.262L98.4453 114H100.895Z" fill="white"/>
<g opacity="0.5" filter="url(#filter0_f)">
<circle cx="65" cy="65" r="35" fill="#3B5998"/>
</g>
<circle cx="65" cy="50" r="40" fill="#3B5998"/>
<path d="M69.2656 41.5664C68.6562 41.5664 68.1654 41.668 67.793 41.8711C67.4544 42.0742 67.2344 42.3281 67.1328 42.6328C67.0312 42.9375 66.9805 43.3268 66.9805 43.8008V47H71.2969L70.6875 51.6211H66.9805V63.25H62.207V51.6211H58.2969V47H62.207V43.3438C62.207 41.4141 62.7487 39.9245 63.832 38.875C64.9154 37.7917 66.3542 37.25 68.1484 37.25C69.6042 37.25 70.7891 37.3177 71.7031 37.4531V41.5664H69.2656Z" fill="white"/>
<defs>
<filter id="filter0_f" x="0" y="0" width="130" height="130" filterUnits="userSpaceOnUse" color-interpolation-filters="sRGB">
<feFlood flood-opacity="0" result="BackgroundImageFix"/>
<feBlend mode="normal" in="SourceGraphic" in2="BackgroundImageFix" result="shape"/>
<feGaussianBlur stdDeviation="15" result="effect1_foregroundBlur"/>
</filter>
</defs>
</svg>

<svg width="130" height="130" viewBox="0 0 130 130" fill="none" xmlns="http://www.w3.org/2000/svg"><path d="M32.034 114v-3.864h4.522v-1.75h-4.522v-1.974h4.62v-1.75h-6.608V114h1.988zm13.817 0l-3.598-9.338H39.76L36.149 114h2.268l.588-1.582h4.004l.574 1.582h2.268zm-3.388-3.332H39.55l1.456-4.018 1.456 4.018zm7.993 3.5c2.058 0 3.234-1.134 3.906-2.296l-1.708-.826c-.392.77-1.232 1.358-2.198 1.358-1.694 0-2.925-1.302-2.925-3.066 0-1.764 1.232-3.066 2.925-3.066.966 0 1.806.602 2.198 1.358l1.708-.84c-.657-1.162-1.848-2.282-3.906-2.282-2.8 0-4.97 1.96-4.97 4.83s2.17 4.83 4.97 4.83zM61.855 114v-1.75h-4.62v-2.114h4.522v-1.75h-4.522v-1.974h4.62v-1.75h-6.608V114h6.608zm6.322 0c1.778 0 2.716-1.12 2.716-2.52 0-1.176-.798-2.142-1.792-2.296.882-.182 1.61-.966 1.61-2.142 0-1.246-.91-2.38-2.688-2.38h-4.914V114h5.068zm-.588-5.6h-2.492v-2.03h2.492c.672 0 1.092.434 1.092 1.022 0 .588-.42 1.008-1.092 1.008zm.07 3.878h-2.562v-2.17h2.562c.784 0 1.204.504 1.204 1.092 0 .672-.448 1.078-1.204 1.078zm8.857 1.89c2.828 0 4.886-2.016 4.886-4.83s-2.058-4.83-4.886-4.83c-2.814 0-4.872 2.016-4.872 4.83s2.058 4.83 4.872 4.83zm0-1.764c-1.722 0-2.828-1.33-2.828-3.066 0-1.75 1.106-3.066 2.828-3.066 1.722 0 2.842 1.316 2.842 3.066 0 1.736-1.12 3.066-2.842 3.066zm10.405 1.764c2.828 0 4.886-2.016 4.886-4.83s-2.058-4.83-4.886-4.83c-2.814 0-4.872 2.016-4.872 4.83s2.058 4.83 4.872 4.83zm0-1.764c-1.722 0-2.828-1.33-2.828-3.066 0-1.75 1.106-3.066 2.828-3.066 1.722 0 2.842 1.316 2.842 3.066 0 1.736-1.12 3.066-2.842 3.066zM100.895 114l-3.962-4.956 3.71-4.382h-2.45l-3.304 4.172v-4.172h-1.988V114h1.988v-2.87l.728-.868L98.445 114h2.45z" fill="#fff"/><g opacity=".5" filter="url(#filter0_f)"><circle cx="65" cy="65" r="35" fill="#3B5998"/></g><circle cx="65" cy="50" r="40" fill="#3B5998"/><path d="M69.266 41.566c-.61 0-1.1.102-1.473.305-.339.203-.559.457-.66.762-.102.304-.152.694-.152 1.168V47h4.316l-.61 4.621h-3.706V63.25h-4.774V51.621h-3.91V47h3.91v-3.656c0-1.93.542-3.42 1.625-4.469 1.083-1.083 2.522-1.625 4.316-1.625 1.456 0 2.641.068 3.555.203v4.113h-2.437z" fill="#fff"/><defs><filter id="filter0_f" x="0" y="0" width="130" height="130" filterUnits="userSpaceOnUse" color-interpolation-filters="sRGB"><feFlood flood-opacity="0" result="BackgroundImageFix"/><feBlend in="SourceGraphic" in2="BackgroundImageFix" result="shape"/><feGaussianBlur stdDeviation="15" result="effect1_foregroundBlur"/></filter></defs></svg>
